X:18012
T:Rosie Finn's Favourite
R:Slide
C:Trad.
O:Ireland
Z:Paul Hardy's Session Tunebook 2022 (see www.paulhardy.net). Creative Commons cc by-nc-sa licenced.
M:6/8
L:1/8
Q:3/8=100
K:G
d|"G"G2B d2g|b2g d2B|"D7"cBc agf|"G"gfe "D"dBA|"G"G2B d2g|b2g d2B|"D7"cBc agf|"G"g3 g2:|
|:d|"G"g2b "C"c'2b|"Am"a2e e2g|"D"f2a abg|f2d d2f|"G"g2b "C"c'2b|"Am"a2e a2g|"D"faf def|"G"g3 g2:|

